X: 305537
M: 6/8
L: 1/8
K: C
cEF GAB | cde f2d | e2c B2c | dec BAG |\
cEF GAB | cde f2d | ege ^faf | g3 g2 :|
|: d |\
ga.f e2c | B2d c2e |d2f edc | Bdc BAG |\
gaf e2c | Bcd cde | def efd | c3 [c2C2] :|


